static/img/kroki/d75076b046162f01ac9771feadc07cb5.svg

<?xml version="1.0" encoding="us-ascii" standalone="no"?><svg xmlns="http://www.w3.org/2000/svg" xmlns:xlink="http://www.w3.org/1999/xlink" contentStyleType="text/css" height="714px" preserveAspectRatio="none" style="width:378px;height:714px;" version="1.1" viewBox="0 0 378 714" width="378px" zoomAndPan="magnify"><defs/><g><!--class aws_iam_instance_profile--><g id="elem_aws_iam_instance_profile"><rect codeLine="22" fill="#3D176E" height="74.0859" id="aws_iam_instance_profile" rx="2.5" ry="2.5" style="stroke:#000D19;stroke-width:0.5;" width="257" x="55" y="633.84"/><ellipse cx="70" cy="653.7345" fill="#ADD1B2" rx="11" ry="11" style="stroke:#181818;stroke-width:1.0;"/><path d="M72.9688,659.3752 Q72.3906,659.672 71.75,659.8127 Q71.1094,659.9689 70.4063,659.9689 Q67.9063,659.9689 66.5781,658.3283 Q65.2656,656.672 65.2656,653.547 Q65.2656,650.422 66.5781,648.7658 Q67.9063,647.1095 70.4063,647.1095 Q71.1094,647.1095 71.75,647.2658 Q72.4063,647.422 72.9688,647.7189 L72.9688,650.4377 Q72.3438,649.8595 71.75,649.5939 Q71.1563,649.3127 70.5313,649.3127 Q69.1875,649.3127 68.5,650.3908 Q67.8125,651.4533 67.8125,653.547 Q67.8125,655.6408 68.5,656.7189 Q69.1875,657.7814 70.5313,657.7814 Q71.1563,657.7814 71.75,657.5158 Q72.3438,657.2345 72.9688,656.6564 L72.9688,659.3752 Z " fill="#000000"/><text fill="#D9B8FF" font-family="Helvetica" font-size="17" lengthAdjust="spacing" textLength="215" x="89" y="659.6198">aws_iam_instance_profile</text><line style="stroke:#000D19;stroke-width:0.5;" x1="56" x2="311" y1="673.6291" y2="673.6291"/><text fill="#D9B8FF" font-family="sans-serif" font-size="14" font-weight="bold" lengthAdjust="spacing" textLength="167" x="66" y="695.6242">instance_profile_path</text><text fill="#D9B8FF" font-family="sans-serif" font-size="14" lengthAdjust="spacing" textLength="48" x="233" y="695.6242">: string</text></g><!--class aws_resource--><g id="elem_aws_resource"><rect codeLine="25" fill="#3D176E" height="74.0859" id="aws_resource" rx="2.5" ry="2.5" style="stroke:#000D19;stroke-width:0.5;" width="155" x="7" y="438.76"/><ellipse cx="22" cy="458.6545" fill="#ADD1B2" rx="11" ry="11" style="stroke:#181818;stroke-width:1.0;"/><path d="M24.9688,464.2952 Q24.3906,464.592 23.75,464.7327 Q23.1094,464.8889 22.4063,464.8889 Q19.9063,464.8889 18.5781,463.2483 Q17.2656,461.592 17.2656,458.467 Q17.2656,455.342 18.5781,453.6858 Q19.9063,452.0295 22.4063,452.0295 Q23.1094,452.0295 23.75,452.1858 Q24.4063,452.342 24.9688,452.6389 L24.9688,455.3577 Q24.3438,454.7795 23.75,454.5139 Q23.1563,454.2327 22.5313,454.2327 Q21.1875,454.2327 20.5,455.3108 Q19.8125,456.3733 19.8125,458.467 Q19.8125,460.5608 20.5,461.6389 Q21.1875,462.7014 22.5313,462.7014 Q23.1563,462.7014 23.75,462.4358 Q24.3438,462.1545 24.9688,461.5764 L24.9688,464.2952 Z " fill="#000000"/><text fill="#D9B8FF" font-family="Helvetica" font-size="17" lengthAdjust="spacing" textLength="113" x="41" y="464.5398">aws_resource</text><line style="stroke:#000D19;stroke-width:0.5;" x1="8" x2="161" y1="478.5491" y2="478.5491"/><text fill="#D9B8FF" font-family="sans-serif" font-size="14" font-weight="bold" lengthAdjust="spacing" textLength="26" x="18" y="500.5442">arn</text><text fill="#D9B8FF" font-family="sans-serif" font-size="14" lengthAdjust="spacing" textLength="48" x="44" y="500.5442">: string</text></g><!--class instance_profile--><g id="elem_instance_profile"><rect codeLine="28" fill="#3D176E" height="39.7891" id="instance_profile" rx="2.5" ry="2.5" style="stroke:#000D19;stroke-width:0.5;" width="174" x="197.5" y="455.91"/><ellipse cx="212.5" cy="475.8045" fill="#ADD1B2" rx="11" ry="11" style="stroke:#181818;stroke-width:1.0;"/><path d="M215.4688,481.4452 Q214.8906,481.742 214.25,481.8827 Q213.6094,482.0389 212.9063,482.0389 Q210.4063,482.0389 209.0781,480.3983 Q207.7656,478.742 207.7656,475.617 Q207.7656,472.492 209.0781,470.8358 Q210.4063,469.1795 212.9063,469.1795 Q213.6094,469.1795 214.25,469.3358 Q214.9063,469.492 215.4688,469.7889 L215.4688,472.5077 Q214.8438,471.9295 214.25,471.6639 Q213.6563,471.3827 213.0313,471.3827 Q211.6875,471.3827 211,472.4608 Q210.3125,473.5233 210.3125,475.617 Q210.3125,477.7108 211,478.7889 Q211.6875,479.8514 213.0313,479.8514 Q213.6563,479.8514 214.25,479.5858 Q214.8438,479.3045 215.4688,478.7264 L215.4688,481.4452 Z " fill="#000000"/><text fill="#D9B8FF" font-family="Helvetica" font-size="17" lengthAdjust="spacing" textLength="132" x="231.5" y="481.6898">instance_profile</text></g><!--class resource--><g id="elem_resource"><rect codeLine="30" fill="#3D176E" height="310.7578" id="resource" rx="2.5" ry="2.5" style="stroke:#000D19;stroke-width:0.5;" width="227" x="70" y="7"/><ellipse cx="138.75" cy="26.8945" fill="#ADD1B2" rx="11" ry="11" style="stroke:#181818;stroke-width:1.0;"/><path d="M141.7188,32.5352 Q141.1406,32.832 140.5,32.9727 Q139.8594,33.1289 139.1563,33.1289 Q136.6563,33.1289 135.3281,31.4883 Q134.0156,29.832 134.0156,26.707 Q134.0156,23.582 135.3281,21.9258 Q136.6563,20.2695 139.1563,20.2695 Q139.8594,20.2695 140.5,20.4258 Q141.1563,20.582 141.7188,20.8789 L141.7188,23.5977 Q141.0938,23.0195 140.5,22.7539 Q139.9063,22.4727 139.2813,22.4727 Q137.9375,22.4727 137.25,23.5508 Q136.5625,24.6133 136.5625,26.707 Q136.5625,28.8008 137.25,29.8789 Q137.9375,30.9414 139.2813,30.9414 Q139.9063,30.9414 140.5,30.6758 Q141.0938,30.3945 141.7188,29.8164 L141.7188,32.5352 Z " fill="#000000"/><text fill="#D9B8FF" font-family="Helvetica" font-size="17" lengthAdjust="spacing" textLength="71" x="164.25" y="32.7798">resource</text><line style="stroke:#000D19;stroke-width:0.5;" x1="71" x2="296" y1="46.7891" y2="46.7891"/><text fill="#D9B8FF" font-family="sans-serif" font-size="14" font-weight="bold" lengthAdjust="spacing" textLength="29" x="81" y="68.7842">age</text><text fill="#D9B8FF" font-family="sans-serif" font-size="14" lengthAdjust="spacing" textLength="66" x="110" y="68.7842">: duration</text><text fill="#D9B8FF" font-family="sans-serif" font-size="14" font-weight="bold" lengthAdjust="spacing" textLength="43" x="81" y="95.0811">atime</text><text fill="#D9B8FF" font-family="sans-serif" font-size="14" lengthAdjust="spacing" textLength="70" x="124" y="95.0811">: datetime</text><text fill="#D9B8FF" font-family="sans-serif" font-size="14" font-weight="bold" lengthAdjust="spacing" textLength="43" x="81" y="121.3779">ctime</text><text fill="#D9B8FF" font-family="sans-serif" font-size="14" lengthAdjust="spacing" textLength="70" x="124" y="121.3779">: datetime</text><text fill="#D9B8FF" font-family="sans-serif" font-size="14" font-weight="bold" lengthAdjust="spacing" textLength="14" x="81" y="147.6748">id</text><text fill="#D9B8FF" font-family="sans-serif" font-size="14" lengthAdjust="spacing" textLength="48" x="95" y="147.6748">: string</text><text fill="#D9B8FF" font-family="sans-serif" font-size="14" font-weight="bold" lengthAdjust="spacing" textLength="33" x="81" y="173.9717">kind</text><text fill="#D9B8FF" font-family="sans-serif" font-size="14" lengthAdjust="spacing" textLength="48" x="114" y="173.9717">: string</text><text fill="#D9B8FF" font-family="sans-serif" font-size="14" font-weight="bold" lengthAdjust="spacing" textLength="90" x="81" y="200.2686">last_access</text><text fill="#D9B8FF" font-family="sans-serif" font-size="14" lengthAdjust="spacing" textLength="66" x="171" y="200.2686">: duration</text><text fill="#D9B8FF" font-family="sans-serif" font-size="14" font-weight="bold" lengthAdjust="spacing" textLength="90" x="81" y="226.5654">last_update</text><text fill="#D9B8FF" font-family="sans-serif" font-size="14" lengthAdjust="spacing" textLength="66" x="171" y="226.5654">: duration</text><text fill="#D9B8FF" font-family="sans-serif" font-size="14" font-weight="bold" lengthAdjust="spacing" textLength="48" x="81" y="252.8623">mtime</text><text fill="#D9B8FF" font-family="sans-serif" font-size="14" lengthAdjust="spacing" textLength="70" x="129" y="252.8623">: datetime</text><text fill="#D9B8FF" font-family="sans-serif" font-size="14" font-weight="bold" lengthAdjust="spacing" textLength="43" x="81" y="279.1592">name</text><text fill="#D9B8FF" font-family="sans-serif" font-size="14" lengthAdjust="spacing" textLength="48" x="124" y="279.1592">: string</text><text fill="#D9B8FF" font-family="sans-serif" font-size="14" font-weight="bold" lengthAdjust="spacing" textLength="34" x="81" y="305.4561">tags</text><text fill="#D9B8FF" font-family="sans-serif" font-size="14" lengthAdjust="spacing" textLength="171" x="115" y="305.4561">: dictionary[string, string]</text></g><!--reverse link aws_resource to aws_iam_instance_profile--><g id="link_aws_resource_aws_iam_instance_profile"><path codeLine="42" d="M112.67,531.74 C129.37,564.32 150.09,604.73 164.79,633.4 " fill="none" id="aws_resource-backto-aws_iam_instance_profile" style="stroke:#FFAF37;stroke-width:2.0;"/><polygon fill="none" points="106.02,535.11,103.12,514.12,118.48,528.72,106.02,535.11" style="stroke:#FFAF37;stroke-width:2.0;"/></g><!--reverse link instance_profile to aws_iam_instance_profile--><g id="link_instance_profile_aws_iam_instance_profile"><path codeLine="43" d="M264.72,514.62 C246.74,549 220.37,599.41 202.6,633.37 " fill="none" id="instance_profile-backto-aws_iam_instance_profile" style="stroke:#FFAF37;stroke-width:2.0;"/><polygon fill="none" points="258.97,511.5,274.45,497.02,271.38,517.99,258.97,511.5" style="stroke:#FFAF37;stroke-width:2.0;"/></g><!--reverse link resource to aws_resource--><g id="link_resource_aws_resource"><path codeLine="44" d="M127.93,338.19 C115.82,376.28 104.2,412.82 96.04,438.51 " fill="none" id="resource-backto-aws_resource" style="stroke:#FFAF37;stroke-width:2.0;"/><polygon fill="none" points="121.56,336.12,134.29,319.18,134.9,340.36,121.56,336.12" style="stroke:#FFAF37;stroke-width:2.0;"/></g><!--reverse link resource to instance_profile--><g id="link_resource_instance_profile"><path codeLine="45" d="M240.13,337.99 C255.61,385.71 270.3,431.02 278.29,455.65 " fill="none" id="resource-backto-instance_profile" style="stroke:#FFAF37;stroke-width:2.0;"/><polygon fill="none" points="233.22,340.36,233.7,319.18,246.53,336.04,233.22,340.36" style="stroke:#FFAF37;stroke-width:2.0;"/></g><!--SRC=[XPDFQy904CNlVee5Rw62LbfhwSKAfRr8QNih9Oox4rrCTiFif6B_VFScfigwYNeBx_tclTc1BBL2WLdE6v5XDaTo7RVI9WU2J4o8x7fgKqkYcoIG34UX-M0DdmLcaA5unFGJMKi8YRUbbYk3pebBpxe7kLgGBOoguvd0kD92mnurJS6v2JFfUS7eBQF6yvia2Samj3jKWz4rDZ1B2kaVwVVxQZ0EaRDL9z-z9rxr5ug1VxIPPMoisQZOKYUth0XloSP3T_xH7Pz1AMqMuihJNkgTo20TwAzBK7PTqGcapgznZ8IMDpbE6w_2yOrAHgtmqp5OLfSJi7QnXYpMnZ4OYN5EDj4fYkzE58LYd0Cle-YsZATonSwl5qBeR46o7WGoBLXBnyuwd5vWDQqA0jRML0hhhDQ0iVekDTcYQUNLHb5vZaEXxE8Of2n_aQ1XwnHvbHKuMKkFWLhQ1pCiwaGjgp6WpNljNVmp7-LJ3yvqzzFhzOwUlzEurHc-9NSdXLuu-mS0]--></g></svg>

<svg xmlns="http://www.w3.org/2000/svg" width="378" height="714" preserveAspectRatio="none" style="width:378px;height:714px"><rect width="257" height="74.086" x="55" y="633.84" fill="#3D176E" rx="2.5" ry="2.5" style="stroke:#000d19;stroke-width:.5"/><circle cx="70" cy="653.735" r="11" fill="#ADD1B2" style="stroke:#181818;stroke-width:1"/><path d="M72.969 659.375q-.578.297-1.219.438-.64.156-1.344.156-2.5 0-3.828-1.64-1.312-1.657-1.312-4.782t1.312-4.781q1.328-1.656 3.828-1.656.703 0 1.344.156.656.156 1.219.453v2.719q-.625-.578-1.219-.844-.594-.281-1.219-.281-1.344 0-2.031 1.078-.688 1.062-.688 3.156 0 2.094.688 3.172.688 1.062 2.031 1.062.625 0 1.219-.265.594-.281 1.219-.86v2.72Z"/><text x="89" y="659.62" fill="#D9B8FF" font-family="Helvetica" font-size="17" textLength="215">aws_iam_instance_profile</text><path d="M56 673.629h255" style="stroke:#000d19;stroke-width:.5"/><text x="66" y="695.624" fill="#D9B8FF" font-family="sans-serif" font-size="14" font-weight="bold" textLength="167">instance_profile_path</text><text x="233" y="695.624" fill="#D9B8FF" font-family="sans-serif" font-size="14" textLength="48">: string</text><rect width="155" height="74.086" x="7" y="438.76" fill="#3D176E" rx="2.5" ry="2.5" style="stroke:#000d19;stroke-width:.5"/><circle cx="22" cy="458.654" r="11" fill="#ADD1B2" style="stroke:#181818;stroke-width:1"/><path d="M24.969 464.295q-.578.297-1.219.438-.64.156-1.344.156-2.5 0-3.828-1.64-1.312-1.657-1.312-4.782t1.312-4.781q1.328-1.656 3.828-1.656.703 0 1.344.156.656.156 1.219.453v2.719q-.625-.579-1.219-.844-.594-.281-1.219-.281-1.343 0-2.031 1.078-.688 1.062-.688 3.156 0 2.094.688 3.172.688 1.062 2.031 1.062.625 0 1.219-.265.594-.281 1.219-.86v2.72Z"/><text x="41" y="464.54" fill="#D9B8FF" font-family="Helvetica" font-size="17" textLength="113">aws_resource</text><path d="M8 478.549h153" style="stroke:#000d19;stroke-width:.5"/><text x="18" y="500.544" fill="#D9B8FF" font-family="sans-serif" font-size="14" font-weight="bold" textLength="26">arn</text><text x="44" y="500.544" fill="#D9B8FF" font-family="sans-serif" font-size="14" textLength="48">: string</text><rect width="174" height="39.789" x="197.5" y="455.91" fill="#3D176E" rx="2.5" ry="2.5" style="stroke:#000d19;stroke-width:.5"/><circle cx="212.5" cy="475.805" r="11" fill="#ADD1B2" style="stroke:#181818;stroke-width:1"/><path d="M215.469 481.445q-.578.297-1.219.438-.64.156-1.344.156-2.5 0-3.828-1.64-1.312-1.657-1.312-4.782t1.312-4.781q1.328-1.656 3.828-1.656.703 0 1.344.156.656.156 1.219.453v2.719q-.625-.578-1.219-.844-.594-.281-1.219-.281-1.344 0-2.031 1.078-.688 1.062-.688 3.156 0 2.094.688 3.172.688 1.062 2.031 1.062.625 0 1.219-.265.594-.281 1.219-.86v2.72Z"/><text x="231.5" y="481.69" fill="#D9B8FF" font-family="Helvetica" font-size="17" textLength="132">instance_profile</text><rect width="227" height="310.758" x="70" y="7" fill="#3D176E" rx="2.5" ry="2.5" style="stroke:#000d19;stroke-width:.5"/><circle cx="138.75" cy="26.895" r="11" fill="#ADD1B2" style="stroke:#181818;stroke-width:1"/><path d="M141.719 32.535q-.578.297-1.219.438-.64.156-1.344.156-2.5 0-3.828-1.64-1.312-1.657-1.312-4.782t1.312-4.781q1.328-1.656 3.828-1.656.703 0 1.344.156.656.156 1.219.453v2.719q-.625-.578-1.219-.844-.594-.281-1.219-.281-1.344 0-2.031 1.078-.688 1.062-.688 3.156 0 2.094.688 3.172.688 1.062 2.031 1.062.625 0 1.219-.265.594-.281 1.219-.86v2.72Z"/><text x="164.25" y="32.78" fill="#D9B8FF" font-family="Helvetica" font-size="17" textLength="71">resource</text><path d="M71 46.789h225" style="stroke:#000d19;stroke-width:.5"/><text x="81" y="68.784" fill="#D9B8FF" font-family="sans-serif" font-size="14" font-weight="bold" textLength="29">age</text><text x="110" y="68.784" fill="#D9B8FF" font-family="sans-serif" font-size="14" textLength="66">: duration</text><text x="81" y="95.081" fill="#D9B8FF" font-family="sans-serif" font-size="14" font-weight="bold" textLength="43">atime</text><text x="124" y="95.081" fill="#D9B8FF" font-family="sans-serif" font-size="14" textLength="70">: datetime</text><text x="81" y="121.378" fill="#D9B8FF" font-family="sans-serif" font-size="14" font-weight="bold" textLength="43">ctime</text><text x="124" y="121.378" fill="#D9B8FF" font-family="sans-serif" font-size="14" textLength="70">: datetime</text><text x="81" y="147.675" fill="#D9B8FF" font-family="sans-serif" font-size="14" font-weight="bold" textLength="14">id</text><text x="95" y="147.675" fill="#D9B8FF" font-family="sans-serif" font-size="14" textLength="48">: string</text><text x="81" y="173.972" fill="#D9B8FF" font-family="sans-serif" font-size="14" font-weight="bold" textLength="33">kind</text><text x="114" y="173.972" fill="#D9B8FF" font-family="sans-serif" font-size="14" textLength="48">: string</text><text x="81" y="200.269" fill="#D9B8FF" font-family="sans-serif" font-size="14" font-weight="bold" textLength="90">last_access</text><text x="171" y="200.269" fill="#D9B8FF" font-family="sans-serif" font-size="14" textLength="66">: duration</text><text x="81" y="226.565" fill="#D9B8FF" font-family="sans-serif" font-size="14" font-weight="bold" textLength="90">last_update</text><text x="171" y="226.565" fill="#D9B8FF" font-family="sans-serif" font-size="14" textLength="66">: duration</text><text x="81" y="252.862" fill="#D9B8FF" font-family="sans-serif" font-size="14" font-weight="bold" textLength="48">mtime</text><text x="129" y="252.862" fill="#D9B8FF" font-family="sans-serif" font-size="14" textLength="70">: datetime</text><text x="81" y="279.159" fill="#D9B8FF" font-family="sans-serif" font-size="14" font-weight="bold" textLength="43">name</text><text x="124" y="279.159" fill="#D9B8FF" font-family="sans-serif" font-size="14" textLength="48">: string</text><text x="81" y="305.456" fill="#D9B8FF" font-family="sans-serif" font-size="14" font-weight="bold" textLength="34">tags</text><text x="115" y="305.456" fill="#D9B8FF" font-family="sans-serif" font-size="14" textLength="171">: dictionary[string, string]</text><path fill="none" d="M112.67 531.74c16.7 32.58 37.42 72.99 52.12 101.66m-58.77-98.29-2.9-20.99 15.36 14.6-12.46 6.39zm158.7-20.49c-17.98 34.38-44.35 84.79-62.12 118.75m56.37-121.87 15.48-14.48-3.07 20.97-12.41-6.49zM127.93 338.19c-12.11 38.09-23.73 74.63-31.89 100.32m25.52-102.39 12.73-16.94.61 21.18-13.34-4.24z" style="stroke:#ffaf37;stroke-width:2"/><g fill="none"><path d="M240.13 337.99c15.48 47.72 30.17 93.03 38.16 117.66" style="stroke:#ffaf37;stroke-width:2"/><path d="m233.22 340.36.48-21.18 12.83 16.86-13.31 4.32z" style="stroke:#ffaf37;stroke-width:2"/></g></svg>
